X: 23
T: Lady Betty Delmes Minuet
%R: minuet, waltz
B: Straight & Skillern "Minuets for the year 1777", p.23
F: http://www.vwml.org/browse/browse-collections-dance-tune-books/browse-straight1777
Z: 2014 John Chambers <jc:trillian.mit.edu>
N: The 2nd strain moves onto the bass staff, which ABC can't do; rewritten to be on treble staff.
M: 3/4
L: 1/8
K: G
% - - - - - - - - - - - - - - - - - - - - - - - - - - - - -
% Voice 1 formatted for a US-letter/A4 page size.
V: 1
|:\
B3 c d2 | {G2}TF4 G2 |\
AB c2 B2 | {B}A2 GFED |\
B3 c d2 | {G2}TF4 G2 |\
AB [c2A2] [B2G2] | [B2G2] [A2F2] z2 :|\
|:\
[F2D2] [G2E2] [A2F2] | [B2G2] [c2A2] [d2B2] |\
[F2D2] [G2E2] [A2F2] | [B2G2] [c2A2] [d2B2] |
e3 eTdc | d3 dTcB |\
c3 cTBA | B2 cBAG |\
F2 E2 D2 | [B,2G,2] [C2A,2] [D2B,2] |\
[E2C2] [F2D2] [G2E2] | [B,2G,2] [C2A,2] [D2B,2] |\
[E2C2] [F2D2] [G2E2] | [D2B,2] [C2A,2] [B,2G,2] |\
{F}ED/C/ B,2 A,2 | G,6 :|
% - - - - - - - - - - - - - - - - - - - - - - - - - - - - -
% Voice 2 preserves the original staff breaks.
V: 2 clef=bass middle=d
|:\
g2 a2 b2 | d'2 c'2 b2 | a2 f2 g2 | d4 z2 |\
g2 a2 b2 | d'2 c'2 b2 | a2 f2 g2 | d2 d'c'ba :|\
|:\
d6 | d6 | d6 | d6 |
c'2 cc'ba | b2 Bbag | a2 Aagf | g6 |\
D6 | G6 | G6 | G6 |\
G6 | G6 | c2 d2 D2 | [d6B6G6] :|
% - - - - - - - - - - - - - - - - - - - - - - - - - - - - -

%%sep 1 1 500
%%sep 1 1 500
